X:1
T:Vigil (Albans), SM
T:Vigil (Albans), SM
T:Arranged from Giovanni Paisiello, 1788
T:Public Domain Courtesy of the Cyber Hymnal™
C:Arranged from Giovanni Paisiello, 1788
Z:Public Domain
Z:Courtesy of the Cyber Hymnal™
%%score ( 1 2 ) ( 3 4 )
L:1/8
Q:1/4=130
M:3/4
K:F
V:1 treble 
V:2 treble 
V:3 bass 
V:4 bass 
V:1
 [Fc]2 | [FA]4 [FA]2 | [EG]2 F2 [EG]2 | F6- | F4 (AB) | [Fc]4 [FA]2 | [Fd]4 [GB]2 | [EG]6- | %8
 [EG]4 [EG]2 | [FA]4 [FA]2 | B2 A2 [EB]2 | [Fc]4 [G^c]2 | [Fd]4 ([GB][DG]) | [CF]4 [CF]2 | %14
 [CE]2 [EA]2 [EG]2 | F4 |] %16
V:2
 x2 | x6 | x2 F2 x2 | x6 | x4 F2 | x6 | x6 | x6 | x6 | x6 | E4 x2 | x6 | x6 | x6 | x6 | F4 |] %16
V:3
 [F,A,]2 | [F,C]4 [F,C]2 | B,2 A,2 [C,B,]2 | [F,A,]6- | [F,A,]4 (CB,) | [F,A,]4 [F,C]2 | %6
 [B,,B,]4 [B,,D]2 | [C,C]6- | [C,C]4 [C,C]2 | [F,C]4 [F,C]2 | [G,C]4 [G,B,]2 | A,4 [A,E]2 | %12
 [B,D]4 (DB,) | [C,A,]4 [C,A,]2 | G,2 C2 [C,B,]2 | [F,A,]4 |] %16
V:4
 x2 | x6 | C,4 x2 | x6 | x4 F,2 | x6 | x6 | x6 | x6 | x6 | x6 | A,4 x2 | x4 B,,2 | x6 | C,4 x2 | %15
 x4 |] %16

